sources/design/Outline/paragraph.svg

<svg:svg xmlns:cc="http://creativecommons.org/ns#" xmlns:dc="http://purl.org/dc/elements/1.1/" xmlns:inkscape="http://www.inkscape.org/namespaces/inkscape" xmlns:rdf="http://www.w3.org/1999/02/22-rdf-syntax-ns#" xmlns:sodipodi="http://sodipodi.sourceforge.net/DTD/sodipodi-0.dtd" xmlns:svg="http://www.w3.org/2000/svg" xml:space="preserve" width="1000" height="1000" version="1.1" style="clip-rule:evenodd;fill-rule:evenodd;image-rendering:optimizeQuality;shape-rendering:geometricPrecision;text-rendering:geometricPrecision" viewBox="0 0 1000 1000" id="svg10" sodipodi:docname="paragraph.svg" inkscape:version="1.0.2 (e86c870879, 2021-01-15)"><svg:metadata id="metadata14"><rdf:RDF><cc:Work rdf:about=""><dc:format>image/svg+xml</dc:format><dc:type rdf:resource="http://purl.org/dc/dcmitype/StillImage" /><dc:title /></cc:Work></rdf:RDF></svg:metadata><sodipodi:namedview pagecolor="#ffffff" bordercolor="#666666" borderopacity="1" objecttolerance="10" gridtolerance="10" guidetolerance="10" inkscape:pageopacity="0" inkscape:pageshadow="2" inkscape:window-width="1920" inkscape:window-height="1007" id="namedview12" showgrid="false" inkscape:zoom="0.84890884" inkscape:cx="121.87791" inkscape:cy="477.99799" inkscape:window-x="1920" inkscape:window-y="0" inkscape:window-maximized="1" inkscape:current-layer="svg10" showguides="true" inkscape:guide-bbox="true" inkscape:document-rotation="0" inkscape:pagecheckerboard="0"><sodipodi:guide position="0,1000" orientation="0,1" id="guide16" inkscape:label="" inkscape:locked="true" inkscape:color="rgb(0,0,255)" /><sodipodi:guide position="1763.3122,2036.1693" orientation="1000,0" id="guide18" /><sodipodi:guide position="0,200" orientation="0,1" id="guide20" inkscape:label="base" inkscape:locked="true" inkscape:color="rgb(0,0,255)" /><inkscape:grid type="xygrid" id="grid24" originx="-473.37552" originy="-489.69235" /><sodipodi:guide position="0,0" orientation="0,1" id="guide34" inkscape:label="bottom" inkscape:locked="true" inkscape:color="rgb(0,0,255)" /><sodipodi:guide position="225.05109,1693.3186" orientation="0,1" id="guide44" inkscape:label="" inkscape:locked="false" inkscape:color="rgb(0,0,255)" /><sodipodi:guide position="0,900" orientation="0,1" id="guide46" inkscape:label="" inkscape:locked="true" inkscape:color="rgb(0,0,255)" /><sodipodi:guide position="493.47959,608.50511" orientation="1,0" id="guide841" inkscape:label="width" />    <sodipodi:guide position="-15.635881,798.82971" orientation="0,-1" id="guide851" /><sodipodi:guide position="402.87011,499.35732" orientation="0,-1" id="guide852" /></sodipodi:namedview>
 <svg:defs id="defs4"><inkscape:path-effect effect="fillet_chamfer" id="path-effect856" is_visible="true" lpeversion="1" satellites_param="F,0,1,1,0,21.099097,0,1 @ F,0,1,1,0,21.099097,0,1 @ F,0,0,1,0,0,0,1 @ F,0,0,1,0,0,0,1 @ F,0,0,1,0,0,0,1 @ F,0,0,1,0,0,0,1 @ F,0,0,1,0,0,0,1 @ F,0,0,1,0,0,0,1 @ F,0,0,1,0,0,0,1 @ F,0,0,1,0,0,0,1 @ F,0,0,1,0,0,0,1 @ F,0,0,1,0,0,0,1 @ F,0,0,1,0,0,0,1 @ F,0,1,1,0,21.099097,0,1 @ F,0,1,1,0,21.099097,0,1 @ F,0,0,1,0,0,0,1 @ F,0,0,1,0,0,0,1 @ F,0,0,1,0,0,0,1 @ F,0,0,1,0,0,0,1 @ F,0,0,1,0,0,0,1 @ F,0,0,1,0,0,0,1 @ F,0,0,1,0,0,0,1 @ F,0,0,1,0,0,0,1" unit="px" method="auto" mode="F" radius="0" chamfer_steps="1" flexible="false" use_knot_distance="true" apply_no_radius="true" apply_with_radius="true" only_selected="true" hide_knots="false" /><inkscape:path-effect effect="fillet_chamfer" id="path-effect854" is_visible="true" lpeversion="1" satellites_param="F,0,1,1,0,16.099922,0,1 @ F,0,1,1,0,16.099922,0,1 @ F,0,0,1,0,0,0,1 @ F,0,0,1,0,0,0,1 @ F,0,0,1,0,0,0,1 @ F,0,0,1,0,0,0,1 @ F,0,0,1,0,0,0,1 @ F,0,0,1,0,0,0,1 @ F,0,0,1,0,18.589466,0,1 @ F,0,0,1,0,0,0,1 @ F,0,1,1,0,16.099922,0,1 @ F,0,1,1,0,16.099922,0,1 @ F,0,0,1,0,0,0,1 @ F,0,0,1,0,0,0,1 @ F,0,0,1,0,0,0,1 @ F,0,0,1,0,0,0,1 @ F,0,0,1,0,0,0,1 @ F,0,0,1,0,0,0,1" unit="px" method="auto" mode="F" radius="0" chamfer_steps="1" flexible="false" use_knot_distance="true" apply_no_radius="true" apply_with_radius="true" only_selected="true" hide_knots="false" /><inkscape:path-effect effect="spiro" id="path-effect855" is_visible="true" lpeversion="1" /><inkscape:path-effect effect="spiro" id="path-effect928" is_visible="true" lpeversion="1" /><inkscape:path-effect effect="spiro" id="path-effect921" is_visible="true" lpeversion="1" /><inkscape:path-effect effect="spiro" id="path-effect917" is_visible="true" lpeversion="1" /><inkscape:path-effect effect="spiro" id="path-effect849" is_visible="true" lpeversion="1" /><inkscape:path-effect effect="spiro" id="path-effect851" is_visible="true" lpeversion="1" />
  <svg:style type="text/css" id="style2">
   
    .fil0 {fill:#EF7F1A;fill-rule:nonzero}
   
  </svg:style>
 <inkscape:path-effect effect="spiro" id="path-effect1214" is_visible="true" lpeversion="1" /><inkscape:path-effect effect="spiro" id="path-effect1195" is_visible="true" lpeversion="1" /><inkscape:path-effect effect="spiro" id="path-effect992" is_visible="true" lpeversion="1" /><inkscape:path-effect effect="spiro" id="path-effect1060" is_visible="true" lpeversion="1" /><inkscape:path-effect effect="spiro" id="path-effect1047" is_visible="true" lpeversion="1" /><inkscape:path-effect effect="spiro" id="path-effect1085" is_visible="true" lpeversion="1" /><inkscape:path-effect effect="spiro" id="path-effect1286" is_visible="true" lpeversion="1" /></svg:defs>
 
<svg:g id="path853"><svg:path style="color:#000000;clip-rule:nonzero;fill:#1a5fb4;fill-rule:nonzero;stroke-linecap:round;stroke-linejoin:round;-inkscape-stroke:none;paint-order:fill stroke markers;shape-rendering:auto" d="M 453.39844,-29.998047 A 30.003,30.003 0.0 0,0 446.90819999999997,-29.349609 C 399.33547,-19.282272 350.41576999999995,-15.389258000000002 301.84961,-17.806641 C 249.57664999999997,-20.40853 194.24170999999998,-31.03712 135.01952999999997,-29.996094 C 113.80651999999998,-29.623205 91.00210499999997,-27.718707 68.07812499999997,-20.388672 C 44.939642,-12.990049 22.020307,0.02435837 5.0078125,21.037109 C -15.630466,46.528198 -23.06157,78.133603 -22.248047,107.76563 C -21.445399,137.00151 -13.021383,163.73019 -3.056640599999998,187.64648 C 18.651747,239.74860999999999 51.678978,286.74834 92.921875,325.01758 C 100.30531,386.08506 104.70076,447.51498000000004 106.04492,509.00977 C 107.98977000000001,597.98527 103.58261,687.10791 92.873047,775.45898 C 89.558159,802.80593 113.37636,830.0 141.09961,830.0 L 232.97461,830.0 C 246.55473,830.0 261.34688,823.84196 270.16602,812.01367 C 278.98515,800.1853900000001 280.66272,784.4772700000001 276.96289,771.52148 C 270.94964,750.46476 265.48351,729.25257 260.57227,707.91211 C 239.82167,617.74602 228.93677,525.05618 224.50391,431.82422 C 219.71959,331.20049 222.57099,230.22625 232.74219,130.0 L 323.22852,130.0 C 321.13012,214.5977 319.03672,299.19567 317.00195,383.79492 C 314.9083,470.84243 312.81996000000004,558.48999 315.59375,646.61328 C 317.01229,691.6802600000001 319.70038,736.70776 323.65625,781.62305 C 326.10971,809.47988 348.79713,830.0 376.58594,830.0 L 468.36133,830.0 C 481.99341,830.0 496.63726,823.84762 505.49219,812.22852 C 514.34711,800.60941 516.38905,785.02227 512.90234,771.92578 C 488.6915,680.9868 471.81766,588.08542 462.51172,494.44141 C 446.32705,331.57805 453.12139,166.39217 482.62695,5.4082031 A 30.003,30.003 0.0 0,0 453.39844,-29.998047 M 136.07422,29.996094 C 154.14135,29.678504 172.73417,30.942308999999998 191.58983999999998,32.582031 A 30.003,30.003 0.0 0,0 189.36719,34.328125 L 147.45508,79.625 A 30.003,30.003 0.0 0,0 169.47656,130.0 L 172.43359,130.0 C 168.06324,174.34785 165.12251,218.82583 163.58984,263.36133 L 133.57031,200.40039 A 30.003,30.003 0.0 0,0 77.330078,212.73242 C 67.694015,197.36925 59.282687,181.2619 52.328125,164.57031 C 43.932485,144.42 38.237951,124.60383 37.730469,106.11914 C 37.233862,88.030589 42.23762,70.40455 51.638672,58.792969 C 59.425143,49.175615 71.951799,41.364148 86.351562,36.759766 C 100.96583,32.086795 117.88276,30.315869 136.07422,29.996094 M 234.90429999999998,36.695312 C 255.75984999999997,38.876188 276.95493999999997,41.028457 298.86719,42.119141 C 308.88066,42.617562 318.90437,42.791561 328.92773,42.806641 A 30.003,30.003 0.0 0,0 325.02344,56.824219 C 324.91355,61.216082 324.81089,65.608132 324.70117,70.0 L 239.70117,70.0 C 240.19299999999998,66.264031 240.59671999999998,62.516346999999996 241.10936999999998,58.783203 A 30.003,30.003 0.0 0,0 234.9043,36.695312 L 234.90429999999998,36.695312 M 416.45312,36.826172 C 414.2591,50.639651 412.2224,64.475847 410.34961,78.335937 L 380.08008,40.861328 C 392.24137,39.882474 404.36884000000003,38.514074 416.45312,36.826172 M 404.5625,125.69727 C 391.0798,250.08537 390.43235,375.85284 402.80664,500.37305 C 411.84144000000003,591.28858 427.85722000000004,681.48615 450.48633,770.0 L 382.95508,770.0 C 379.39828,728.31569 376.88063,686.54147 375.56445,644.7265600000001 C 372.86002,558.80681 374.89111,472.2677100000001 376.98437,385.23633000000007 C 379.0307,300.15648 381.13736,215.07828 383.24805,130.0 L 389.28319999999997,130.0 A 30.003,30.003 0.0 0,0 404.56249999999994,125.69727 L 404.5625,125.69727 M 158.30859,373.25 A 30.003,30.003 0.0 0,0 162.69141000000002,375.05469 C 163.06835,394.9354 163.62787000000003,414.81131 164.57227000000003,434.67383 C 169.13662000000002,530.67135 180.36283000000003,626.91787 202.09961000000004,721.36914 C 205.84975000000003,737.66437 210.01625000000004,753.85871 214.38086000000004,770.0 L 153.85937000000004,770.0 C 163.82593000000003,682.97121 167.94556000000003,595.27764 166.03125000000003,507.69922 C 165.05002000000002,462.80838000000006 162.41218000000003,417.96154 158.30859000000004,373.25 L 158.30859,373.25" id="path27880" /></svg:g></svg:svg>

<svg:svg xmlns:cc="http://creativecommons.org/ns#" xmlns:dc="http://purl.org/dc/elements/1.1/" xmlns:inkscape="http://www.inkscape.org/namespaces/inkscape" xmlns:rdf="http://www.w3.org/1999/02/22-rdf-syntax-ns#" xmlns:sodipodi="http://sodipodi.sourceforge.net/DTD/sodipodi-0.dtd" xmlns:svg="http://www.w3.org/2000/svg" xml:space="preserve" width="1000" height="1000" version="1.1" style="clip-rule:evenodd;fill-rule:evenodd;image-rendering:optimizeQuality;shape-rendering:geometricPrecision;text-rendering:geometricPrecision" viewBox="0 0 1000 1000" id="svg10" sodipodi:docname="paragraph.svg" inkscape:version="1.0.2 (e86c870879, 2021-01-15)"><svg:metadata id="metadata14"><rdf:RDF><cc:Work rdf:about=""><dc:format>image/svg+xml</dc:format><dc:type rdf:resource="http://purl.org/dc/dcmitype/StillImage" /><dc:title /></cc:Work></rdf:RDF></svg:metadata><sodipodi:namedview pagecolor="#ffffff" bordercolor="#666666" borderopacity="1" objecttolerance="10" gridtolerance="10" guidetolerance="10" inkscape:pageopacity="0" inkscape:pageshadow="2" inkscape:window-width="1920" inkscape:window-height="1007" id="namedview12" showgrid="false" inkscape:zoom="0.84890884" inkscape:cx="121.87791" inkscape:cy="477.99799" inkscape:window-x="1920" inkscape:window-y="0" inkscape:window-maximized="1" inkscape:current-layer="svg10" showguides="true" inkscape:guide-bbox="true" inkscape:document-rotation="0" inkscape:pagecheckerboard="0"><sodipodi:guide position="0,1000" orientation="0,1" id="guide16" inkscape:label="" inkscape:locked="true" inkscape:color="rgb(0,0,255)" /><sodipodi:guide position="1763.3122,2036.1693" orientation="1000,0" id="guide18" /><sodipodi:guide position="0,200" orientation="0,1" id="guide20" inkscape:label="base" inkscape:locked="true" inkscape:color="rgb(0,0,255)" /><inkscape:grid type="xygrid" id="grid24" originx="-473.37552" originy="-489.69235" /><sodipodi:guide position="0,0" orientation="0,1" id="guide34" inkscape:label="bottom" inkscape:locked="true" inkscape:color="rgb(0,0,255)" /><sodipodi:guide position="225.05109,1693.3186" orientation="0,1" id="guide44" inkscape:label="" inkscape:locked="false" inkscape:color="rgb(0,0,255)" /><sodipodi:guide position="0,900" orientation="0,1" id="guide46" inkscape:label="" inkscape:locked="true" inkscape:color="rgb(0,0,255)" /><sodipodi:guide position="493.47959,608.50511" orientation="1,0" id="guide841" inkscape:label="width" />    <sodipodi:guide position="-15.635881,798.82971" orientation="0,-1" id="guide851" /><sodipodi:guide position="402.87011,499.35732" orientation="0,-1" id="guide852" /></sodipodi:namedview>
 <svg:defs id="defs4"><inkscape:path-effect effect="fillet_chamfer" id="path-effect856" is_visible="true" lpeversion="1" satellites_param="F,0,1,1,0,21.099097,0,1 @ F,0,1,1,0,21.099097,0,1 @ F,0,0,1,0,0,0,1 @ F,0,0,1,0,0,0,1 @ F,0,0,1,0,0,0,1 @ F,0,0,1,0,0,0,1 @ F,0,0,1,0,0,0,1 @ F,0,0,1,0,0,0,1 @ F,0,0,1,0,0,0,1 @ F,0,0,1,0,0,0,1 @ F,0,0,1,0,0,0,1 @ F,0,0,1,0,0,0,1 @ F,0,0,1,0,0,0,1 @ F,0,1,1,0,21.099097,0,1 @ F,0,1,1,0,21.099097,0,1 @ F,0,0,1,0,0,0,1 @ F,0,0,1,0,0,0,1 @ F,0,0,1,0,0,0,1 @ F,0,0,1,0,0,0,1 @ F,0,0,1,0,0,0,1 @ F,0,0,1,0,0,0,1 @ F,0,0,1,0,0,0,1 @ F,0,0,1,0,0,0,1" unit="px" method="auto" mode="F" radius="0" chamfer_steps="1" flexible="false" use_knot_distance="true" apply_no_radius="true" apply_with_radius="true" only_selected="true" hide_knots="false" /><inkscape:path-effect effect="fillet_chamfer" id="path-effect854" is_visible="true" lpeversion="1" satellites_param="F,0,1,1,0,16.099922,0,1 @ F,0,1,1,0,16.099922,0,1 @ F,0,0,1,0,0,0,1 @ F,0,0,1,0,0,0,1 @ F,0,0,1,0,0,0,1 @ F,0,0,1,0,0,0,1 @ F,0,0,1,0,0,0,1 @ F,0,0,1,0,0,0,1 @ F,0,0,1,0,18.589466,0,1 @ F,0,0,1,0,0,0,1 @ F,0,1,1,0,16.099922,0,1 @ F,0,1,1,0,16.099922,0,1 @ F,0,0,1,0,0,0,1 @ F,0,0,1,0,0,0,1 @ F,0,0,1,0,0,0,1 @ F,0,0,1,0,0,0,1 @ F,0,0,1,0,0,0,1 @ F,0,0,1,0,0,0,1" unit="px" method="auto" mode="F" radius="0" chamfer_steps="1" flexible="false" use_knot_distance="true" apply_no_radius="true" apply_with_radius="true" only_selected="true" hide_knots="false" /><inkscape:path-effect effect="spiro" id="path-effect855" is_visible="true" lpeversion="1" /><inkscape:path-effect effect="spiro" id="path-effect928" is_visible="true" lpeversion="1" /><inkscape:path-effect effect="spiro" id="path-effect921" is_visible="true" lpeversion="1" /><inkscape:path-effect effect="spiro" id="path-effect917" is_visible="true" lpeversion="1" /><inkscape:path-effect effect="spiro" id="path-effect849" is_visible="true" lpeversion="1" /><inkscape:path-effect effect="spiro" id="path-effect851" is_visible="true" lpeversion="1" />
  <svg:style type="text/css" id="style2">
   
    .fil0 {fill:#EF7F1A;fill-rule:nonzero}
   
  </svg:style>
 <inkscape:path-effect effect="spiro" id="path-effect1214" is_visible="true" lpeversion="1" /><inkscape:path-effect effect="spiro" id="path-effect1195" is_visible="true" lpeversion="1" /><inkscape:path-effect effect="spiro" id="path-effect992" is_visible="true" lpeversion="1" /><inkscape:path-effect effect="spiro" id="path-effect1060" is_visible="true" lpeversion="1" /><inkscape:path-effect effect="spiro" id="path-effect1047" is_visible="true" lpeversion="1" /><inkscape:path-effect effect="spiro" id="path-effect1085" is_visible="true" lpeversion="1" /><inkscape:path-effect effect="spiro" id="path-effect1286" is_visible="true" lpeversion="1" /></svg:defs>
 
<svg:g id="path853"><svg:path style="color:#000000;clip-rule:nonzero;fill:#1a5fb4;fill-rule:nonzero;stroke-linecap:round;stroke-linejoin:round;-inkscape-stroke:none;shape-rendering:auto" d="m 453.39844,-29.998047 a 30.003,30.003 0 0 0 -6.49024,0.648438 c -47.57273,10.067337 -96.49243,13.960351 -145.05859,11.542968 -52.27296,-2.601889 -107.6079,-13.230479 -166.83008,-12.189453 -21.21301,0.372889 -44.017425,2.277387 -66.941405,9.607422 C 44.939642,-12.990049 22.020307,0.02435837 5.0078125,21.037109 -15.630466,46.528198 -23.06157,78.133603 -22.248047,107.76563 c 0.802648,29.23588 9.226664,55.96456 19.1914064,79.88085 21.7083876,52.10213 54.7356186,99.10186 95.9785156,137.3711 7.383435,61.06748 11.778885,122.4974 13.123045,183.99219 1.94485,88.9755 -2.46231,178.09814 -13.171873,266.44921 C 89.558159,802.80593 113.37636,830 141.09961,830 h 91.875 c 13.58012,0 28.37227,-6.15804 37.19141,-17.98633 8.81913,-11.82828 10.4967,-27.5364 6.79687,-40.49219 -6.01325,-21.05672 -11.47938,-42.26891 -16.39062,-63.60937 C 239.82167,617.74602 228.93677,525.05618 224.50391,431.82422 219.71959,331.20049 222.57099,230.22625 232.74219,130 h 90.48633 c -2.0984,84.5977 -4.1918,169.19567 -6.22657,253.79492 -2.09365,87.04751 -4.18199,174.69507 -1.4082,262.81836 1.41854,45.06698 4.10663,90.09448 8.0625,135.00977 C 326.10971,809.47988 348.79713,830 376.58594,830 h 91.77539 c 13.63208,0 28.27593,-6.15238 37.13086,-17.77148 8.85492,-11.61911 10.89686,-27.20625 7.41015,-40.30274 C 488.6915,680.9868 471.81766,588.08542 462.51172,494.44141 446.32705,331.57805 453.12139,166.39217 482.62695,5.4082031 A 30.003,30.003 0 0 0 453.39844,-29.998047 Z M 136.07422,29.996094 c 18.06713,-0.31759 36.65995,0.946215 55.51562,2.585937 a 30.003,30.003 0 0 0 -2.22265,1.746094 L 147.45508,79.625 A 30.003,30.003 0 0 0 169.47656,130 h 2.95703 c -4.37035,44.34785 -7.31108,88.82583 -8.84375,133.36133 L 133.57031,200.40039 A 30.003,30.003 0 0 0 77.330078,212.73242 C 67.694015,197.36925 59.282687,181.2619 52.328125,164.57031 43.932485,144.42 38.237951,124.60383 37.730469,106.11914 37.233862,88.030589 42.23762,70.40455 51.638672,58.792969 59.425143,49.175615 71.951799,41.364148 86.351562,36.759766 100.96583,32.086795 117.88276,30.315869 136.07422,29.996094 Z m 98.83008,6.699218 c 20.85555,2.180876 42.05064,4.333145 63.96289,5.423829 10.01347,0.498421 20.03718,0.67242 30.06054,0.6875 a 30.003,30.003 0 0 0 -3.90429,14.017578 C 324.91355,61.216082 324.81089,65.608132 324.70117,70 h -85 c 0.49183,-3.735969 0.89555,-7.483653 1.4082,-11.216797 A 30.003,30.003 0 0 0 234.9043,36.695312 Z m 181.54882,0.13086 c -2.19402,13.813479 -4.23072,27.649675 -6.10351,41.509765 L 380.08008,40.861328 c 12.16129,-0.978854 24.28876,-2.347254 36.37304,-4.035156 z M 404.5625,125.69727 c -13.4827,124.3881 -14.13015,250.15557 -1.75586,374.67578 9.0348,90.91553 25.05058,181.1131 47.67969,269.62695 h -67.53125 c -3.5568,-41.68431 -6.07445,-83.45853 -7.39063,-125.27344 -2.70443,-85.91975 -0.67334,-172.45885 1.41992,-259.49023 C 379.0307,300.15648 381.13736,215.07828 383.24805,130 h 6.03515 a 30.003,30.003 0 0 0 15.2793,-4.30273 z M 158.30859,373.25 a 30.003,30.003 0 0 0 4.38282,1.80469 c 0.37694,19.88071 0.93646,39.75662 1.88086,59.61914 4.56435,95.99752 15.79056,192.24404 37.52734,286.69531 3.75014,16.29523 7.91664,32.48957 12.28125,48.63086 h -60.52149 c 9.96656,-87.02879 14.08619,-174.72236 12.17188,-262.30078 -0.98123,-44.89084 -3.61907,-89.73768 -7.72266,-134.44922 z" id="path27792" /></svg:g></svg:svg>
